brandFactory_export/2.Regular/Flecha izquierda_2Regular.svg

<?xml version="1.0" encoding="UTF-8"?>
<svg width="24px" height="24px" viewBox="0 0 24 24" version="1.1" xmlns="http://www.w3.org/2000/svg" xmlns:xlink="http://www.w3.org/1999/xlink">
    <title>2.Regular/Flecha izquierda_2Regular</title>
    <g id="Symbols" stroke="none" stroke-width="1" fill="none" fill-rule="evenodd">
        <g id="2.Regular/Flecha-izquierda_2Regular" fill="#5CB615" fill-rule="nonzero">
            <path d="M17.5277311,23.6235294 C17.2084034,23.6235294 16.8991597,23.502521 16.6638655,23.2840336 L5.45378151,12.8739496 C4.91596639,12.3731092 4.88571429,11.5327731 5.38655462,10.994958 C5.40336134,10.9747899 5.42352941,10.9579832 5.44369748,10.9378151 L16.6571429,0.349579832 C17.1613445,-0.131092437 17.9613445,-0.114285714 18.4453782,0.393277311 C18.4554622,0.403361345 18.4655462,0.413445378 18.4722689,0.423529412 C18.9529412,0.961344538 18.9193277,1.78151261 18.3983193,2.2789916 L8.21344538,11.8991597 L18.3915966,21.3378151 C18.9159664,21.8252101 18.9529412,22.6554622 18.4756303,23.1932773 C18.2369748,23.4621849 17.8907563,23.6201681 17.5277311,23.6235294" id="Path"></path>
        </g>
    </g>
</svg>

<svg width="24" height="24" viewBox="0 0 24 24" xmlns="http://www.w3.org/2000/svg"><path d="M17.528 23.624a1.27 1.27 0 01-.864-.34l-11.21-10.41a1.329 1.329 0 01-.067-1.879c.016-.02.037-.037.057-.057L16.657.35a1.264 1.264 0 011.788.043 1.335 1.335 0 01-.047 1.886l-10.185 9.62 10.179 9.439c.524.487.56 1.317.084 1.855a1.287 1.287 0 01-.948.43" fill="#5CB615" fill-rule="nonzero"/></svg>
